svg/300/outlined/hardware.svg

<svg xmlns="http://www.w3.org/2000/svg" width="48" height="48" viewBox="0 -960 960 960"><path d="M416.309-140.001q-14.076 0-22.499-11.77-8.424-11.769-8.424-26.461v-481.769h-188.46Q202.695-728 253.31-773.999q50.615-46 119.768-46h212.306v133.923l132.307-133.923h45.383v312.844h-45.383L585.384-640.693v462.461q0 15.692-11.27 26.961-11.269 11.27-26.961 11.27H416.309Zm14.461-45.384H540V-432.77H430.77v247.385Zm0-293.154H540v-296.076H373.078q-35.677 0-68.338 18.731-32.661 18.73-48.046 50.499H430.77v226.846ZM485.385-480Z"/></svg>

<svg xmlns="http://www.w3.org/2000/svg" width="48" height="48" viewBox="0 -960 960 960"><path d="M416.31-140q-14.08 0-22.5-11.77t-8.42-26.46V-660H196.93q5.77-68 56.38-114 50.62-46 119.77-46h212.3v133.92L717.69-820h45.38v312.85h-45.38L585.38-640.69v462.46q0 15.69-11.27 26.96Q562.85-140 547.15-140H416.31Zm14.46-45.39H540v-247.38H430.77v247.38Zm0-293.15H540v-296.07H373.08q-35.68 0-68.34 18.73-32.66 18.73-48.05 50.49h174.08v226.85Zm54.62-1.46Z"/></svg>
